svg/信息管理.svg

<svg width="120" height="120" viewBox="0 0 120 120" fill="none" xmlns="http://www.w3.org/2000/svg">
<rect width="120" height="120" rx="30" fill="url(#paint0_linear_1_708)"/>
<path d="M78.9701 63.86C78.0705 63.86 77.1708 64.1168 76.4254 64.6302L69.0224 69.5594C68.1484 70.1499 67.1716 70.4066 66.2206 70.4066C65.4023 70.4066 64.5586 70.178 63.8413 69.7965C63.8339 69.7926 63.8256 69.7905 63.8172 69.7905C63.8087 69.7905 63.8004 69.7884 63.7929 69.7843C62.1802 68.9098 61.1824 67.2445 61.1824 65.4004C61.1824 64.3992 60.437 63.4749 59.3574 63.1155C57.4809 62.4994 55.8101 61.4725 54.4478 60.1375C52.0572 57.7499 50.7206 54.3097 50.7206 50.4845V33C50.7206 32.4477 50.2728 32 49.7206 32H39.7446C33.8068 32 29 36.8008 29 42.7056V71.4849C29 77.4153 33.8068 82.1905 39.7446 82.1905H80.2554C86.1932 82.1905 91 77.4153 91 71.4849V64.86C91 64.3078 90.5523 63.86 90 63.86H78.9701ZM71.6957 90.2004H65.8607C63.7272 90.2004 61.9793 88.4803 61.9793 86.3495V85.3996C61.9793 84.347 61.131 83.4998 60.0771 83.4998C59.0232 83.4998 58.175 84.347 58.175 85.3996V86.3495C58.175 88.4803 56.4527 90.2004 54.3192 90.2004H48.4842C47.4561 90.2004 46.5821 91.0733 46.5821 92.1002C46.5821 93.1271 47.4561 94 48.4842 94H71.6957C72.7239 94 73.5978 93.1528 73.5978 92.1002C73.5978 91.0476 72.7239 90.2004 71.6957 90.2004Z" fill="url(#paint1_linear_1_708)" stroke="url(#paint2_linear_1_708)"/>
<path opacity="0.7" d="M84.2012 31H63.8517C63.8426 31 63.8351 31.0074 63.8351 31.0166C63.8351 31.0257 63.8276 31.0331 63.8185 31.0331C60.2239 31.0384 57.568 32.7597 56.5034 35.7355C56.1921 36.676 56 37.7423 56 38.8683V51.0879C56 53.4723 56.7219 55.4459 58.0995 56.8236C59.4771 58.2012 61.4508 58.9231 63.8351 58.9231C65.12 58.9231 66.1864 59.9894 66.1864 61.2743V63.1621C66.1864 63.9619 67.0788 64.4381 67.7431 63.9927L74.7434 59.3006C75.1209 59.0489 75.5912 58.89 76.0614 58.89H84.2079C85.3338 58.89 86.4001 58.731 87.3737 58.3866C90.3475 57.3203 92.043 54.6578 92.043 51.0548V38.8352C92.043 34.0069 89.0361 31 84.2079 31H84.2012ZM64.9942 47.485C63.6762 47.485 62.643 46.4186 62.643 45.1337C62.643 43.8489 63.7093 42.7825 64.9942 42.7825C66.2791 42.7825 67.3454 43.8489 67.3454 45.1337C67.3454 46.4186 66.3122 47.485 64.9942 47.485ZM73.8228 47.485C72.5048 47.485 71.4716 46.4186 71.4716 45.1337C71.4716 43.8489 72.5379 42.7825 73.8228 42.7825C75.1077 42.7825 76.174 43.8489 76.174 45.1337C76.174 46.4186 75.1077 47.485 73.8228 47.485ZM82.6316 47.485C81.3136 47.485 80.2804 46.4186 80.2804 45.1337C80.2804 43.8489 81.3467 42.7825 82.6316 42.7825C83.9164 42.7825 84.9828 43.8489 84.9828 45.1337C84.9828 46.4186 83.9164 47.485 82.6316 47.485Z" fill="url(#paint3_linear_1_708)"/>
<defs>
<linearGradient id="paint0_linear_1_708" x1="60" y1="0" x2="60" y2="120" gradientUnits="userSpaceOnUse">
<stop stop-color="#5BF776"/>
<stop offset="1" stop-color="#0DBC29"/>
</linearGradient>
<linearGradient id="paint1_linear_1_708" x1="60" y1="32" x2="60" y2="94" gradientUnits="userSpaceOnUse">
<stop stop-color="white"/>
<stop offset="1" stop-color="#C2FFAB"/>
</linearGradient>
<linearGradient id="paint2_linear_1_708" x1="60" y1="32" x2="60" y2="94" gradientUnits="userSpaceOnUse">
<stop stop-color="white"/>
<stop offset="1" stop-color="#7CDE5A"/>
</linearGradient>
<linearGradient id="paint3_linear_1_708" x1="74.0215" y1="31" x2="74.0215" y2="65.0362" gradientUnits="userSpaceOnUse">
<stop stop-color="#E5FFE4"/>
<stop offset="1" stop-color="#C3FFB3"/>
</linearGradient>
</defs>
</svg>

<svg viewBox="0 0 120 120" fill="currentColor"><rect width="120" height="120" fill="currentColor" rx="30"/><path fill="currentColor" stroke="currentColor" d="M78.97 63.86c-.9 0-1.8.257-2.545.77l-7.403 4.93c-.874.59-1.85.847-2.801.847a5.2 5.2 0 0 1-2.38-.61.1.1 0 0 0-.024-.007.1.1 0 0 1-.024-.006 4.96 4.96 0 0 1-2.61-4.384c0-1-.746-1.925-1.826-2.285a12.6 12.6 0 0 1-4.91-2.977c-2.39-2.388-3.726-5.828-3.726-9.654V33a1 1 0 0 0-1-1h-9.976C33.807 32 29 36.8 29 42.706v28.779c0 5.93 4.807 10.706 10.745 10.706h40.51C86.193 82.19 91 77.415 91 71.485V64.86a1 1 0 0 0-1-1zM71.696 90.2H65.86c-2.134 0-3.882-1.72-3.882-3.85v-.95c0-1.053-.848-1.9-1.902-1.9a1.897 1.897 0 0 0-1.902 1.9v.95c0 2.13-1.722 3.85-3.856 3.85h-5.835c-1.028 0-1.902.873-1.902 1.9s.874 1.9 1.902 1.9h23.212a1.913 1.913 0 0 0 1.902-1.9c0-1.052-.874-1.9-1.902-1.9Z"/><path fill="currentColor" d="M84.201 31h-20.35a.02.02 0 0 0-.016.017q-.001.015-.017.016c-3.594.005-6.25 1.727-7.315 4.703-.31.94-.503 2.006-.503 3.132v12.22c0 2.384.722 4.358 2.1 5.736 1.377 1.377 3.35 2.1 5.735 2.1a2.37 2.37 0 0 1 2.351 2.35v1.888a1 1 0 0 0 1.557.83l7-4.691c.378-.252.848-.411 1.318-.411h8.147c1.126 0 2.192-.159 3.166-.503 2.974-1.067 4.669-3.73 4.669-7.332v-12.22c0-4.828-3.007-7.835-7.835-7.835zM64.994 47.485a2.35 2.35 0 0 1-2.351-2.351 2.37 2.37 0 0 1 2.351-2.352 2.37 2.37 0 0 1 2.351 2.352 2.35 2.35 0 0 1-2.35 2.351m8.829 0a2.35 2.35 0 0 1-2.351-2.351 2.37 2.37 0 0 1 2.35-2.352 2.37 2.37 0 0 1 2.352 2.352 2.37 2.37 0 0 1-2.351 2.351m8.809 0a2.35 2.35 0 0 1-2.352-2.351 2.37 2.37 0 0 1 2.352-2.352 2.37 2.37 0 0 1 2.35 2.352 2.37 2.37 0 0 1-2.35 2.351" opacity=".7"/><defs><linearGradient id="a" x1="60" x2="60" y1="0" y2="120" gradientUnits="userSpaceOnUse"><stop stopColor="currentColor"/><stop offset="1" stopColor="currentColor"/></linearGradient><linearGradient id="b" x1="60" x2="60" y1="32" y2="94" gradientUnits="userSpaceOnUse"><stop stopColor="currentColor"/><stop offset="1" stopColor="currentColor"/></linearGradient><linearGradient id="c" x1="60" x2="60" y1="32" y2="94" gradientUnits="userSpaceOnUse"><stop stopColor="currentColor"/><stop offset="1" stopColor="currentColor"/></linearGradient><linearGradient id="d" x1="74.022" x2="74.022" y1="31" y2="65.036" gradientUnits="userSpaceOnUse"><stop stopColor="currentColor"/><stop offset="1" stopColor="currentColor"/></linearGradient></defs></svg>
